X:1
T:Shouting His Praise
T:Shouting His Praise
T:John Robson Sweney
T:Frances Jane (Fanny) Crosby, 1892
T:Public Domain Courtesy of the Cyber Hymnal™
T:Public Domain Courtesy of the Cyber Hymnal™
C:John Robson Sweney
Z:Public Domain
Z:Courtesy of the Cyber Hymnal™
%%score ( 1 2 ) ( 3 4 )
L:1/8
Q:1/4=135
M:3/4
K:G
V:1 treble 
V:2 treble 
V:3 bass 
V:4 bass 
V:1
"^Duet" [DB]2 [^C^A]2 [DB]2 | [Ec]2 [DB]4 | [DB]2 [CA]2 [B,^G]2 | [CA]6 | [CA]2 [B,^G]2 [CA]2 | %5
w: 1.~Fear- less and|faith- ful,|trust- ing and|true,|Loy- al to|
w: 2.~Fear- less and|faith- ful,|strong in the|Lord,|Firm as an|
w: 3.~Fear- less and|faith- ful,|ear- nest in|prayer,|Liv- ing for|
 [Fd]2 [Ec]4 | [Ec]2 [DB]2 [^C^A]2 | [DB]6 | [B,D]2 [B,G]2 [CA]2 | [DB]2 [B,G]4 | %10
w: Je- sus,|in all I|do;|Seek- ing His|glor- y,|
w: anch- or,|my hope His|Word;|O- ver the|con- flicts,|
w: o- thers,|their bur- dens|share;|Cheer- ing the|low- ly,|
 [DB]2 [Ec]2 [=Fd]2 | [Ec]6 | [Ec]2 [DB]2 [^C^A]2 | [DB]2 [B,G]3 [DB] | [^CA]2 [CE]2 [=CF]2 | %15
w: lov- ing His|laws,|Read- y and|will- ing to|hon- or His|
w: rag- ing with-|in,|Vic- to- ry|prom- ised thro’|grace I shall|
w: poor and op-|pressed,|Point- ing to|Je- sus, the|Giv- er of|
 [B,G]4 z2 ||"^Refrain" d6- | [Gd]2 [GB]2 G2 | A6 | F4 z2 | [Ac]6- | [Ac]2 [Bd]2 [Ac]2 | [GB]6- | %23
w: cause.|So|* would I|ev-|er|Walk|* in His|ways,|
w: win.||||||||
w: rest.||||||||
 [GB]4 z2 | G6- | [DG]2 [DA]2 [=FB]2 | c6 | e6 | d6- | [Fd]2 e2 d2 | G6- | [DG]4 z2 |] %32
w: |Bear-|* ing His|stand-|ard,|Shout-|* ing His|praise.||
w: |||||||||
w: |||||||||
V:2
 x6 | x6 | x6 | x6 | x6 | x6 | x6 | x6 | x6 | x6 | x6 | x6 | x6 | x6 | x6 | x6 || G2 G2 G2 | x6 | %18
 (F2 F2 F2) | (D2 D2) x2 | x6 | x6 | x6 | x6 | D2 D2 D2 | x6 | (E2 E2 E2) | (G2 G4) | G2 G2 G2 | %29
 x6 | D2 D2 E2 | x6 |] %32
V:3
 [G,,G,]2 z4 | [G,,G,]2 z4 | [D,,D,]2 z4 | (D,2 F,2 A,2 | D,2) z4 | [D,,D,]2 z4 | [D,,D,]2 z4 | %7
w: ~|~|~|~ * *||~|~|
 (G,,2 B,,2 D,2 | G,,2) z4 | [G,,G,]2 z4 | [G,,G,]2 z4 | (C,2 E,2 G,2 | C,2) z4 | G,,2 z4 | %14
w: ~ * *||~|~|~ * *||~|
 A,,2 z2 ([D,,D,]2 | [G,,D,]4) z2 || B,6 | [G,B,]2 ([G,D]2 B,2) | C6 | A,4 z2 | %20
w: ~ ~||So|would I *|ev-|er,|
 [D,D]2 [D,D]2 [D,D]2 | [D,D]2 z4 | [G,D]2 [G,D]2 [G,D]2 | [G,D]4 z2 | [G,B,]2 [G,B,]2 [G,B,]2 | %25
w: So would I|ev-|er, Walk in|His|ways, Walk in|
 [G,B,]2 [F,A,]2 G,2 | [C,G,]2 [C,G,]2 [C,G,]2 | [C,C]2 [C,C]4 | [D,B,]2 [D,B,]2 [D,B,]2 | %29
w: His ways, Bear-|ing His stand-|ard, Yes,|bear- ing His|
 [D,B,]2 z4 | [G,B,]2 [G,B,]2 [G,C]2 | [G,B,]4 z2 |] %32
w: stand-|ard, Shout- ing|His|
V:4
 x6 | x6 | x6 | x6 | x6 | x6 | x6 | x6 | x6 | x6 | x6 | x6 | x6 | x6 | x6 | x6 || G,2 G,2 G,2 | %17
 x6 | D,2 D,2 D,2 | D,2 D,2 x2 | x6 | x6 | x6 | x6 | x6 | x4 G,2 | x6 | x6 | x6 | x6 | x6 | x6 |] %32

